svgs/duotone/earth-oceania.svg

<svg xmlns="http://www.w3.org/2000/svg" viewBox="0 0 512 512"><!--! Font Awesome Pro 6.4.2 by @fontawesome - https://fontawesome.com License - https://fontawesome.com/license (Commercial License) Copyright 2023 Fonticons, Inc. --><path class="fa-primary" style="fill:var(--fa-primary-color,inherit);opacity:var(--fa-primary-opacity,1);" d="M273.8 142.5c-9.5-9.5-23-13.6-36.1-10.9l-38.5 7.7c-15.3 3.1-17.6 24-3.4 30.3l42.8 19c5.1 2.3 10.6 3.4 16.2 3.4h29.9c14.3 0 21.4-17.2 11.3-27.3l-22.2-22.2zM169.6 343.8l39 13.5c2.4 .8 4.7 2 6.9 3.4L240.9 377c7.1 4.6 15.3 7 23.7 7c13.4 0 26.1-6.2 34.4-16.8L311 351.8c5.8-7.4 9-16.6 9-26s-3.2-18.6-9-26l-17.9-22.9c-4.8-6.1-8.7-12.9-11.5-20.2l-10.1-25.9c-1.6-4.1-5.6-6.8-10-6.8c-3.4 0-6.7 1.6-8.7 4.4l-10.4 14.2c-4.7 6.4-12.7 9.5-20.4 7.9c-3.2-.7-6.1-2.5-8.1-5.1l-4.6-6.1c-7.2-9.6-18.6-15.3-30.6-15.3s-23.4 5.7-30.6 15.3l-5.3 7c-1.6 2.1-3.6 3.7-5.9 4.8l-35.3 16.8c-20.5 9.8-28.8 34.6-18.2 54.7l3.3 6.2c9 17.1 29 25.4 47.5 19.5l15.3-4.9c6.6-2.1 13.6-2 20.1 .3zM248 432c0 8.8 7.2 16 16 16h16c8.8 0 16-7.2 16-16s-7.2-16-16-16H264c-8.8 0-16 7.2-16 16zM431.2 298.9c-2.8-8.4-11.9-12.9-20.2-10.1s-12.9 11.9-10.1 20.2l8 24c2.8 8.4 11.9 12.9 20.2 10.1s12.9-11.9 10.1-20.2l-8-24zm-19.9 80.4c6.2-6.2 6.2-16.4 0-22.6s-16.4-6.2-22.6 0l-32 32c-6.2 6.2-6.2 16.4 0 22.6s16.4 6.2 22.6 0l32-32z"/><path class="fa-secondary" style="fill:var(--fa-secondary-color,inherit);opacity:var(--fa-secondary-opacity,.4);" d="M256 512A256 256 0 1 0 256 0a256 256 0 1 0 0 512zM208.6 357.3l-39-13.5c-6.5-2.2-13.6-2.3-20.1-.3l-15.3 4.9c-18.5 5.9-38.5-2.4-47.5-19.5l-3.3-6.2c-10.6-20.1-2.3-45 18.2-54.7l35.3-16.8c2.3-1.1 4.4-2.8 5.9-4.8l5.3-7c7.2-9.6 18.6-15.3 30.6-15.3s23.4 5.7 30.6 15.3l4.6 6.1c2 2.6 4.9 4.5 8.1 5.1c7.8 1.6 15.7-1.5 20.4-7.9l10.4-14.2c2-2.8 5.3-4.4 8.7-4.4c4.4 0 8.4 2.7 10 6.8l10.1 25.9c2.8 7.2 6.7 14 11.5 20.2L311 299.8c5.8 7.4 9 16.6 9 26s-3.2 18.6-9 26L299 367.2c-8.3 10.6-21 16.8-34.4 16.8c-8.4 0-16.6-2.4-23.7-7l-25.4-16.4c-2.2-1.4-4.5-2.5-6.9-3.4zm65.2-214.8L296 164.7c10.1 10.1 2.9 27.3-11.3 27.3H254.8c-5.6 0-11.1-1.2-16.2-3.4l-42.8-19c-14.3-6.3-11.9-27.3 3.4-30.3l38.5-7.7c13.1-2.6 26.7 1.5 36.1 10.9zM248 432c0-8.8 7.2-16 16-16h16c8.8 0 16 7.2 16 16s-7.2 16-16 16H264c-8.8 0-16-7.2-16-16zM431.2 298.9l8 24c2.8 8.4-1.7 17.4-10.1 20.2s-17.4-1.7-20.2-10.1l-8-24c-2.8-8.4 1.7-17.4 10.1-20.2s17.4 1.7 20.2 10.1zm-19.9 80.4l-32 32c-6.2 6.2-16.4 6.2-22.6 0s-6.2-16.4 0-22.6l32-32c6.2-6.2 16.4-6.2 22.6 0s6.2 16.4 0 22.6z"/></svg>

<svg xmlns="http://www.w3.org/2000/svg" viewBox="0 0 512 512"><!--! Font Awesome Pro 6.1.1 by @fontawesome - https://fontawesome.com License - https://fontawesome.com/license (Commercial License) Copyright 2022 Fonticons, Inc. --><defs><style>.fa-secondary{opacity:.4}</style></defs><path class="fa-primary" d="M296 164.7C306.1 174.8 298.9 192 284.7 192H254.8C249.2 192 243.7 190.8 238.5 188.6L195.7 169.5C181.5 163.2 183.8 142.3 199.1 139.2L237.6 131.5C250.8 128.9 264.3 132.1 273.8 142.5L296 164.7zM149.5 343.6L134.1 348.4C115.7 354.3 95.67 346.1 86.65 328.9L83.37 322.7C72.8 302.6 81.08 277.7 101.6 267.9L136.9 251.1C139.2 250 141.3 248.4 142.8 246.3L148.1 239.3C155.3 229.7 166.7 224 178.7 224C190.7 224 202.1 229.7 209.3 239.3L213.8 245.4C215.8 247.1 218.7 249.8 221.9 250.5C229.7 252.1 237.7 248.1 242.4 242.6L252.8 228.4C254.8 225.6 258 224 261.5 224C265.9 224 269.9 226.7 271.5 230.8L281.6 256.7C284.4 263.1 288.3 270.7 293.1 276.9L311 299.8C316.8 307.2 320 316.4 320 325.8C320 335.2 316.8 344.4 311 351.8L298.1 367.2C290.7 377.8 278 384 264.6 384C256.2 384 247.1 381.6 240.9 377L215.5 360.6C213.4 359.2 211 358.1 208.6 357.3L169.6 343.8C163.1 341.6 156 341.5 149.5 343.6H149.5zM248 432C248 423.2 255.2 416 264 416H280C288.8 416 296 423.2 296 432C296 440.8 288.8 448 280 448H264C255.2 448 248 440.8 248 432zM439.2 322.9C441.1 331.3 437.4 340.4 429.1 343.2C420.7 345.1 411.6 341.4 408.8 333.1L400.8 309.1C398 300.7 402.6 291.6 410.9 288.8C419.3 286 428.4 290.6 431.2 298.9L439.2 322.9zM379.3 411.3C373.1 417.6 362.9 417.6 356.7 411.3C350.4 405.1 350.4 394.9 356.7 388.7L388.7 356.7C394.9 350.4 405.1 350.4 411.3 356.7C417.6 362.9 417.6 373.1 411.3 379.3L379.3 411.3z"/><path class="fa-secondary" d="M0 256C0 114.6 114.6 0 256 0C397.4 0 512 114.6 512 256C512 397.4 397.4 512 256 512C114.6 512 0 397.4 0 256zM215.5 360.6L240.9 377C247.1 381.6 256.2 384 264.6 384C278 384 290.7 377.8 298.1 367.2L311 351.8C316.8 344.4 320 335.2 320 325.8C320 316.4 316.8 307.2 311 299.8L293.1 276.9C288.3 270.7 284.4 263.1 281.6 256.7L271.5 230.8C269.9 226.7 265.9 224 261.5 224C258 224 254.8 225.6 252.8 228.4L242.4 242.6C237.7 248.1 229.7 252.1 221.9 250.5C218.7 249.8 215.8 247.1 213.8 245.4L209.3 239.3C202.1 229.7 190.7 224 178.7 224C166.7 224 155.3 229.7 148.1 239.3L142.8 246.3C141.3 248.4 139.2 250 136.9 251.1L101.6 267.9C81.08 277.7 72.8 302.6 83.37 322.7L86.65 328.9C95.67 346.1 115.7 354.3 134.1 348.4L149.5 343.6C156 341.5 163.1 341.6 169.6 343.8L208.6 357.3C211 358.1 213.4 359.2 215.5 360.6H215.5zM273.8 142.5C264.3 132.1 250.8 128.9 237.6 131.5L199.1 139.2C183.8 142.3 181.5 163.2 195.7 169.5L238.5 188.6C243.7 190.8 249.2 192 254.8 192H284.7C298.9 192 306.1 174.8 296 164.7L273.8 142.5zM264 448H280C288.8 448 296 440.8 296 432C296 423.2 288.8 416 280 416H264C255.2 416 248 423.2 248 432C248 440.8 255.2 448 264 448zM431.2 298.9C428.4 290.6 419.3 286 410.9 288.8C402.6 291.6 398 300.7 400.8 309.1L408.8 333.1C411.6 341.4 420.7 345.1 429.1 343.2C437.4 340.4 441.1 331.3 439.2 322.9L431.2 298.9zM411.3 379.3C417.6 373.1 417.6 362.9 411.3 356.7C405.1 350.4 394.9 350.4 388.7 356.7L356.7 388.7C350.4 394.9 350.4 405.1 356.7 411.3C362.9 417.6 373.1 417.6 379.3 411.3L411.3 379.3z"/></svg>
